X:1
T:Title
%%score [ 1 2 3 4 ]
L:1/8
Q:1/4=60
M:2/4
K:Emin
V:1 treble-8 nm="Tenor I"
V:2 treble-8 nm="Tenor II"
V:3 bass nm="Bass I"
V:4 bass nm="Bass II"
V:1
"^Langsam (slowly)"!p! B2 Ac | B2!mf! z!<(! e!<)! | ^d4 | e3 z | !>!c2 B z | !>!dc B z |!p! A2 A2 | %7
w: Re- qui- *|em ae-|ter-|nam|do- na|e- * is|Do- mi-|
 B2 z2 | B2 Ac |!f! B2 z e | =f4 | e4 | !>!d2 c z | !>!ed c z |!p! B2 B2 | B3 z | z4 |!f! z4 | %18
w: ne.|Re- qui- *|em ae-|ter-|nam|do- na|e- * is|Do- mi-|ne.|||
 e2 ee | =f3 f | e2 z2 | z4 |!f! ^d2 dd | f2 e^d | e2 e2 | e2 g=f |!>(! e4!>)! | d4 | c2 z2 | z4 | %30
w: et lux per-|pe- tu-|a,||et lux per-|pe- tu- *|a lu-|ce- at _|e-||is,||
 z2 !>!B2- |!>(! B2!>)! Ac | B2!mf! z e | ^d4 | e3 z |!p! !>!c2 B z | dc B z | A2 A2 | B3 z | %39
w: re-|* qui- *|em ae-|ter-|nam,|do- na|e- * is|re- qui-|em,|
 d2 de |!f! d2 z g | ^f4 | g3 z!p! | !>!e2 d z | !>!e_e d z | c2 B2 | B2 z2 | c3 c | B2 z2 | %49
w: re- qui- *|em ae-|ter-|nam|do- na|e- * is|Do- mi-|ne,|re- qui-|em,|
 c>ccc | B2 B z |!f!!<(! e2 e2!<)! | f2 e2 |!>(! e2 ^d2!>)!!p! | !fermata!e4 |] %55
w: re- qui- em ae-|ter- nam|do- na|e- is|Do- mi-|ne.|
V:2
!p! G2 FA | G2!mf! z!<(! B | AcBA!<)! | G3 z | !>!A2 G z | !>!A2 G z |!p! G2 ^F2 | G2 z2 | G2 ^FA | %9
w: Re- qui- *|em ae-|ter- * * *|nam|do- na|e- is|Do- mi-|ne.|Re- qui- *|
!f! G2 z B | B4- | Bc dc | !>!A2 A z | !>!A2 A z |!p! G2 F2 | G3 z | z4 |!f! z4 | c2 cc | c3 c | %20
w: em ae-|ter-|* * * nam|do- na|e- is|Do- mi-|ne.|||et lux per-|pe- tu-|
 c2 z2 | z4 |!f! B2 BB | B2 B2 | B2 B2 | A2 A2 |!>(! c4- | c2!>)! B2 | c2 z2 | z4 |!p! !>!A2 GF | %31
w: a,||et lux per-|pe- tu-|a lu-|ce- at|e-||is,||re- * *|
 G2 F2 | G2!mf! z B | AcBA | G3 z |!p! !>!A2 G z | A2 G z | G2 ^F2 | G3 z | B2 Ac |!f! B2 z d | %41
w: * qui-|em ae-|ter- * * *|nam,|do- na|e- is|re- qui-|em,|re- qui- *|em ae-|
 c_edc | B3 z!p! | !>!c2 B z | !>!c2 B z | A2 GF | G2 z2 | A3 A | G2 z2 | A>AAA | G2 G z | %51
w: ter- * * *|nam|do- na|e- is|Do- mi- *|ne,|re- qui-|em,|re- qui- em ae-|ter- nam|
!f!!<(! c2 c2!<)! | c2 c2 |!>(! B2 B2!>)!!p! | !fermata!B4 |] %55
w: do- na|e- is|Do- mi-|ne.|
V:3
!p! E,2 E,2 | E,2!mf! z!<(! G, | F,A,G,F,!<)! | E,3 z | !>!E,2 E, z | !>!E,2 E, z |!p! E,2 D,2 | %7
w: Re- qui-|em ae-|ter- * * *|nam|do- na|e- is|Do- mi-|
 D,2 z2 | E,2 E,2 |!f! E,2 z G, | G,2 ^G,2- | G,A, B,E, | !>!F,2 E, z | !>!F,2 E, z |!p! E,2 ^D,2 | %15
w: ne.|Re- qui-|em ae-|ter- *|* * * nam|do- na|e- is|Do- mi-|
 E,3 z | z4 |!f! z4 | G,2 G,G, | A,3 A, | G,2 z2 | z4 |!f! F,2 F,F, | A,2 G,F, | G,2 ^G,2 | %25
w: ne.|||et lux per-|pe- tu-|a,||et lux per-|pe- tu- *|a lu-|
 A,2 D,2 |!>(! G,4!>)! | =F,4 |!p! E,2 D,=F, | E,4 |!p! E,2 ^D,2 | E,2 E,2 | E,2!mf! z G, | %33
w: ce- at|e-|is,|re- qui- *|em,|re- *|* qui-|em ae-|
 F,A,G,F, | E,3 z |!p! !>!E,2 E, z | E,2 E, z | E,2 D,2 | D,3 z | G,2 G,2 |!f! G,2 z B, | A,CB,A, | %42
w: ter- * * *|nam,|do- na|e- is|re- qui-|em,|re- qui-|em ae-|ter- * * *|
 G,3 z!p! | !>!G,2 G, z | !>!G,2 G, z | E,2 ^D,2 | E,2 z2 | E,3 E, | E,2 z2 | E,>E,E,E, | %50
w: nam|do- na|e- is|Do- mi-|ne,|re- qui-|em,|re- qui- em ae-|
 E,2 E, z |!f!!<(! G,2 G,2!<)! | F,2 G,2 |!>(! G,2 ^F,2!>)!!p! | !fermata!G,4 |] %55
w: ter- nam|do- na|e- is|Do- mi-|ne.|
V:4
!p! E,2 E,2 | E,2!mf! z E, | B,,4 | E,3 z | !>!A,,2 E, z | !>!A,,2 E, z |!p! C,2 D,2 | G,,2 z2 | %8
w: Re- qui-|em ae-|ter-|nam|do- na|e- is|Do- mi-|ne.|
 E,2 E,2 | E,2 z E, | D,4 | C,2 B,,A,, | !>!D,2 A,, z | !>!D,2 A,, z |!p! B,,2 B,,2 | [E,,E,]3 z | %16
w: Re- qui-|em ae-|ter-|* nam _|do- na|e- is|Do- mi-|ne.|
!f! E,2 B,A, | G,F, E,D, | C,4- | C,4 |!f! C,2 CB, | A,G, F,E, | B,,4- | B,,4 | E,2 D,2 | C,2 D,2 | %26
w: et lux per-|pe- * tu- *|a,|_|et lux per-|pe- * tu- *|a|_|lu- *|ce- at|
!>(! G,,4- | G,,4!>)! |!p! C,4 | C,B,, A,,G,, | F,,2 B,,2 | E,2 E,2 | E,2!mf! z E, | B,,4 | E,3 z | %35
w: e-||is,|re- * qui- *|em, _|re- qui-|em ae-|ter-|nam,|
!p! !>!A,,2 E, z | !>!A,,2 E, z | C,2 D,2 | G,,3 z | G,,2 G,2 |!f! G,2 z G, | D,4 | G,,3 z!p! | %43
w: do- na|e- is|re- qui-|em,|re- qui-|em ae-|ter-|nam|
 !>!C,2 G,, z | !>!C,2 G,, z | A,,>A,, B,,2 | E,=D, C,B,, | A,,4 | E,D,C,B,, | A,,2 A,,2 | %50
w: do- na|e- is|Do- mi- ne,|re- * qui- *|em,|re- qui- em ae-|ter- nam|
 E,D,C,B,, |!f!!<(! _B,,2 B,,2!<)! | A,,2 _B,,2 |!>(! =B,,2 B,,2!>)!!p! | !fermata!E,,4 |] %55
w: do- * * *|* na|e- is|Do- mi-|ne.|

